X:1
T:Title
%%score { ( 1 4 5 ) | ( 2 3 ) }
L:1/8
Q:1/4=100
M:4/4
K:G
V:1 treble nm="Grand Piano"
V:4 treble 
V:5 treble 
V:2 bass 
V:3 bass 
V:1
 B2 G>A B2 [B,G]2 | E2 G2 D2 E2 | [G,B,G]>[CF] [DG]>A B2 d2 | B4 [FA]4 | B2 G>A B2 [B,G]2 | %5
w: Hamp~Sewall * * * *|||||
 E2 G2 D2 E2 | [G,B,G]>[CF] [DG]>A B2 [Dd]2 |[M:3/4] [CA]4 [G,B,G]2 |[M:1/4] z2 |[M:4/4] B6 z2 | %10
w: |||||
[M:3/4] B6 |[M:1/4] [DB]>[^DA] |[M:4/4] G6 z2 |[M:3/4][K:bass] D6 |[M:1/4][K:treble] d2 | %15
w: |||||
[M:4/4] B->[DB-] [DB-]>[DB-] [DB]D E>G |[M:3/4] B->[DB-] [DB-]>[DB-] [DB]2 |[M:1/4] B>c | %18
w: |||
[M:4/4] d3 [EGc] [DGB]2 [CFA]2 | [G,B,G]6 z2 |] %20
w: ||
V:2
 [G,D]2 [G,B,]>[G,C] [G,D]2 [G,,G,]2 | z4 B,2 z2 | %2
 G,,>[A,,D,] [B,,G,]>[D,F,D][K:treble] [G,D]2 [G,B,G]2 | [G,DG]4[K:bass] [D,D]4 | %4
 [G,D]2 [G,B,]>[G,C] [G,D]2 [G,,G,]2 | z4 B,2 z2 | G,,>[A,,D,] [B,,G,]>[D,F,D] [G,D]2 [B,,G,]2 | %7
[M:3/4] [D,F,]4 G,,2 |[M:1/4][K:treble] d2 | %9
[M:4/4][K:bass] [G,,G,]>[G,,G,] [G,,G,]>[G,,G,] .[G,,G,]2 z2 | %10
[M:3/4] [G,,G,]>[G,,G,] [B,,G,]>[D,G,] G,2 |[M:1/4] [G,,G,]>[B,,G,] | %12
[M:4/4] [C,C]>[C,C] [C,C]>[C,C] [C,C]2 [C,C]>[C,G,] |[M:3/4] [G,,G,]>[G,,G,] [B,,G,]>[D,G,] G,2 | %14
[M:1/4] z2 |[M:4/4] [G,,G,]>[G,,G,] [G,,G,]>[G,,G,] .[G,,G,]2 z2 | %16
[M:3/4] [G,,G,]>[G,,G,] [B,,G,]>[D,G,] G,2 |[M:1/4][K:treble] [G,D]>[G,A,D] | %18
[M:4/4] [G,B,G]3[K:bass] C, D,2 D,2 | G,,6 z2 |] %20
V:3
 x8 | [C,G,C]2 [E,G,C]2 G,2- [G,C]2 | x4[K:treble] x4 | x4[K:bass] x4 | x8 | %5
 [C,G,C]2 [E,G,C]2 G,2- [G,C]2 | x8 |[M:3/4] x6 |[M:1/4][K:treble] x2 |[M:4/4][K:bass] x8 | %10
[M:3/4] x6 |[M:1/4] x2 |[M:4/4] x8 |[M:3/4] x6 |[M:1/4] x2 |[M:4/4] x8 |[M:3/4] x6 | %17
[M:1/4][K:treble] x2 |[M:4/4] x3[K:bass] x5 | x8 |] %20
V:4
 x8 | x8 | x8 | x8 | x8 | x8 | x8 |[M:3/4] x6 |[M:1/4] x2 |[M:4/4] D>D D>D DD E>G | %10
[M:3/4] D>D D>D D2 |[M:1/4] x2 |[M:4/4] E>E E>E z z/ A/ [EG]>[CE] | %13
[M:3/4][K:bass] B,>B, B,>B, B,2 |[M:1/4][K:treble] x2 |[M:4/4] D2 z2 z4 |[M:3/4] D2 z2 z2 | %17
[M:1/4] x2 |[M:4/4] x8 | x8 |] %20
V:5
 x8 | x8 | x8 | x8 | x8 | x8 | x8 |[M:3/4] x6 |[M:1/4] x2 |[M:4/4] x8 |[M:3/4] x6 |[M:1/4] x2 | %12
[M:4/4] z4 E2 z2 |[M:3/4][K:bass] x6 |[M:1/4][K:treble] x2 |[M:4/4] x8 |[M:3/4] x6 |[M:1/4] x2 | %18
[M:4/4] x8 | x8 |] %20

